X: 1
T: the Disbanded Officer
M: C
L: 1/8
Z: 2019 John Chambers <jc:trillian.mit.edu>
B: Thompson's Compleat Collection of 204 Favourite Country Dances Volume 5.
S: image of page from susan:elegantarts.org
K: A
|:\
A3B  dcBA | e2e2 c2A2 | a3f  fedc | BcdB AGFE |
A3B  dcBA | e2e2 c2A2 | a3f  fedc | BABc A4  :|
|:\
a2a2 e2c2 | f2f2 d2B2 | e2e2 c2A2 | GABG E2E2 |
A3B  dcBA | e2e2 c2A2 | a3f  fedc | BABc A4  :|
%%begintext align
%% Lead down 2 Cu: and ballance Allemand .|.
%% Up again and ballance Allemand :|.
%% the 3 1.st Cu.s ballance all round .|:
%% Cast off. Right and Left :|:
%%endtext
